X: 8184
T: Cooley's
R: reel
M: 4/4
K: Edorian
|:E ~B2 A B2 EB|~B2 AB dBAG|(3FED AD BDAD|(3FED FA BAFD|
E ~B2 A B2 EB|~B2 AB defg|af (3gfe dBAF|DEFD E2 z2:|
|:eB ~B2 eBgB|eB ~B2 gedB|~A2 FA DAFA|~A2 FA defg|
eB ~B2 eBgB|eB ~B2 defg|af (3gfe dBAF|DEFD E2 z2:|

